src/assets/icons/multicolor/reload.multicolor.svg

<svg width="32" height="32" fill="none">
  <path fill="#fff" d="M16 32c8.8365 0 16-7.1635 16-16 0-8.83655-7.1635-16-16-16C7.1634 0 0 7.16345 0 16c0 8.8366 7.1634 16 16 16zm0-1C7.72895 31 1 24.271 1 16S7.72895 1 16 1c8.271 0 15 6.729 15 15s-6.729 15-15 15z"/>
  <path fill="#fff" fill-rule="evenodd" d="M20.9998 11h-1.7001c1.1818.7819 2.0484 1.9572 2.4458 3.3173.3974 1.3602.3 2.8171-.2749 4.1123-.5749 1.2952-1.5901 2.3447-2.8654 2.9623-1.2754.6177-2.7283.7634-4.1009.4114-1.3726-.352-2.5761-1.179-3.3968-2.3341-.8207-1.1552-1.20554-2.5638-1.0862-3.9758.1193-1.4119.7352-2.736 1.7381-3.737s2.3281-1.6143 3.7404-1.7309V11l.065.022c-1.1906.1041-2.3046.6309-3.1404 1.4851-.8358.8543-1.3382 1.9795-1.4163 3.1721-.0781 1.1925.2734 2.3736.9907 3.3295.7173.956 1.7531 1.6235 2.9199 1.8819 1.1668.2585 2.3876.0906 3.4414-.473 1.0538-.5637 1.8711-1.486 2.3038-2.6.4328-1.114.4525-2.3461.0555-3.4734-.3969-1.1273-1.1843-2.0752-2.2196-2.6722V13.5c0 .1326-.0527.2598-.1465.3536-.0937.0937-.2209.1464-.3535.1464-.1327 0-.2599-.0527-.3536-.1464-.0938-.0938-.1464-.221-.1464-.3536v-3c0-.1326.0526-.2598.1464-.3536.0937-.0937.2209-.1464.3536-.1464h3c.1326 0 .2598.0527.3535.1464.0938.0938.1465.221.1465.3536 0 .1326-.0527.2598-.1465.3536-.0937.0937-.2209.1464-.3535.1464z" clip-rule="evenodd"/>
</svg>

<svg width="32" height="32" viewBox="0 0 32 32" fill="none" xmlns="http://www.w3.org/2000/svg">
<path d="M16 32C24.8365 32 32 24.8365 32 16C32 7.16345 24.8365 0 16 0C7.1634 0 0 7.16345 0 16C0 24.8366 7.1634 32 16 32ZM16 31C7.72895 31 1 24.271 1 16C1 7.729 7.72895 1 16 1C24.271 1 31 7.729 31 16C31 24.271 24.271 31 16 31Z" fill="white"/>
<path fill-rule="evenodd" clip-rule="evenodd" d="M20.9998 11H19.2997C20.4815 11.7819 21.3481 12.9572 21.7455 14.3173C22.1429 15.6775 22.0455 17.1344 21.4706 18.4296C20.8957 19.7248 19.8805 20.7743 18.6052 21.3919C17.3298 22.0096 15.8769 22.1553 14.5043 21.8033C13.1317 21.4513 11.9282 20.6243 11.1075 19.4692C10.2868 18.314 9.90196 16.9054 10.0213 15.4934C10.1406 14.0815 10.7565 12.7574 11.7594 11.7564C12.7623 10.7554 14.0875 10.1421 15.4998 10.0255V11L15.5648 11.022C14.3742 11.1261 13.2602 11.6529 12.4244 12.5071C11.5886 13.3614 11.0862 14.4866 11.0081 15.6792C10.93 16.8717 11.2815 18.0528 11.9988 19.0087C12.7161 19.9647 13.7519 20.6322 14.9187 20.8906C16.0855 21.1491 17.3063 20.9812 18.3601 20.4176C19.4139 19.8539 20.2312 18.9316 20.6639 17.8176C21.0967 16.7036 21.1164 15.4715 20.7194 14.3442C20.3225 13.2169 19.5351 12.269 18.4998 11.672V13.5C18.4998 13.6326 18.4471 13.7598 18.3533 13.8536C18.2596 13.9473 18.1324 14 17.9998 14C17.8671 14 17.7399 13.9473 17.6462 13.8536C17.5524 13.7598 17.4998 13.6326 17.4998 13.5V10.5C17.4998 10.3674 17.5524 10.2402 17.6462 10.1464C17.7399 10.0527 17.8671 10 17.9998 10H20.9998C21.1324 10 21.2596 10.0527 21.3533 10.1464C21.4471 10.2402 21.4998 10.3674 21.4998 10.5C21.4998 10.6326 21.4471 10.7598 21.3533 10.8536C21.2596 10.9473 21.1324 11 20.9998 11Z" fill="white"/>
</svg>
